X:1
T:Title
%%score { ( 1 3 ) | ( 2 4 ) }
L:1/8
M:12/8
K:G
V:1 treble nm="Grand Piano"
V:3 treble 
V:2 treble 
V:4 treble 
V:1
 z6 z3[Q:1/4=100] DGA | B6- B z z z3 |[M:9/8] G8- G |[M:3/8] GFG |[M:6/4] .A12 |[M:9/8] B8- B | %6
[M:3/8] DGA |[M:6/4] .B12 |[M:9/8] G8- G |[M:3/8] GAB |[M:6/4] [FA]2 [FA][DF][FA][Fd] ^c2 cAce | %11
[M:9/8] d2- [Fd-] [Fd-][Fd-][Gd-] [Ad]3 |[M:3/8] d^cd |[M:6/4] [Ge]2 A A2 B c3 cBc | %14
 [Fd]2 GGGA B3 [GB][G_B][G=B] | [CEc]2 [CEB][CEA][CEA][CEG] [^DF]2 [FA] [EG]2 [DF] | %16
[M:27/16] E/-E/-E/-E/-E/-E/-E/-E/-E/-E/-E/-E/-E/-E/-E/-E/-E/-E/-E/-E/-E/-E-<E z | %17
[M:6/4] [B,G]3 A3 B3 BAG | [Gc]3 [Gd]3 [Ge]3 [Ge][Ge][Ge] | %19
 [Gd]2 [Gd] [Fc]2 [GB] [FA]2 [Ac] [GB]2 A |[M:9/8][K:bass] G8- G |] %21
V:2
 z12 | z3 [G,D][G,D][G,D] [G,D][G,^CG][G,DG][K:bass] [D,D][D,A,][D,CD] | %2
[M:9/8] [G,B,D]2 [G,B,] [G,B,][G,B,][G,B,] [G,B,]3 |[M:3/8] z3 | %4
[M:6/4] z2 z [D,C][D,C][D,C] [D,C][D,C][D,C][D,C][D,B,][D,D] | %5
[M:9/8][K:treble] [G,DG]2 [G,D] [G,D][G,D][G,D] [G,D]3 |[M:3/8] z3 | %7
[M:6/4] z2 z [G,D][G,D][G,D] [G,D][G,^CG][G,DG][K:bass][D,D][D,A,][D,C] | %8
[M:9/8] [G,B,D]2 [G,B,] [G,B,][G,B,][G,B,] [G,B,]3 |[M:3/8][K:treble] [G,B,D][G,CD][G,DG] | %10
[M:6/4][K:bass] [D,D]2 [D,D][D,A,][D,D][D,D][K:treble] [A,EG]2 [A,EG][A,^CG][A,EG][A,CG] | %11
[M:9/8][K:bass] z2 A, A,A,B, ^C3 |[M:3/8][K:treble] [G,B,G][G,_B,G][G,=B,G] | %13
[M:6/4][K:bass] [C,C]2[K:treble] [CDF] [CDF]2 [B,DG] [A,DF]3 [A,DF][A,DF][A,DF] | %14
 [D,A,]2 [B,D][K:treble][B,D][B,D][A,DF] [G,DG]3[K:bass] [E,G,][E,G,][E,G,] | %15
 A,,2 A,,A,,A,,A,, [B,,B,]2 [B,,B,] [B,,B,]2 [B,,B,] | %16
[M:27/16] [E,G,]/-[E,G,]/-[E,G,]/-[E,G,]/-[E,G,]/-[E,G,]/-[E,G,]/-[E,G,]/-[E,G,]-<[E,G,][F,A,C]/-[F,A,C]/-[F,A,C]/-[F,A,C]/-[F,A,C]/-[F,A,C]-<[F,A,C][D,F,C][D,G,][D,A,C] | %17
[M:6/4] [G,,G,]3 [D,F,D]3 [G,D]3 [G,D][F,A,D][=F,B,D] | [E,C]3 [D,B,]3 [C,C]3 [C,C][C,C][C,C] | %19
 [D,B,]2 [D,B,] [D,A,]2 [D,G,] [D,C]2 [D,C] [D,D]2 [D,CD] |[M:9/8] [G,B,D]8- [G,B,D] |] %21
V:3
 x12 | z3 GGG G_B=B [Fd][Fc]A |[M:9/8] z2 D DDD D3 |[M:3/8] x3 | %4
[M:6/4] z2 z FFF F[FA][FA][FA][DG][FA] |[M:9/8] z2 G GGG G3 |[M:3/8] x3 | %7
[M:6/4] z2 z GGG G_B=B[Fd][Fc][FA] |[M:9/8] z2 D DDD D3 |[M:3/8] x3 |[M:6/4] x12 | %11
[M:9/8] .[DF]3 z3 z3 |[M:3/8] x3 |[M:6/4] x12 | x12 | x12 | %16
[M:27/16] z/ z/ z/ z/ z B,/-B,/-B,-<B,^D/-D/-D/-D/-D/-D-<D=DCF |[M:6/4] x12 | x12 | x12 | %20
[M:9/8][K:bass] z2 D, E,D,B,, G,,3 |] %21
V:4
 x12 | x9[K:bass] x3 |[M:9/8] x9 |[M:3/8] x3 |[M:6/4] x12 |[M:9/8][K:treble] x9 |[M:3/8] x3 | %7
[M:6/4] x9[K:bass] x3 |[M:9/8] x9 |[M:3/8][K:treble] x3 |[M:6/4][K:bass] x6[K:treble] x6 | %11
[M:9/8][K:bass] D,8- D, |[M:3/8][K:treble] x3 |[M:6/4][K:bass] x2[K:treble] x10 | %14
 x3[K:treble] x6[K:bass] x3 | x12 |[M:27/16] x27/2 |[M:6/4] x12 | x12 | x12 |[M:9/8] x9 |] %21

